!!!COM: Palestrina, Giovanni Perluigi da
!!!OPR: Missa Io mi son giovinetta (1570)
!!!OMD: Credo
!!!OTL: Et resurrexit
**kern	**kern	**kern
*Ibass	*Icalto	*Icant
!Bassus	!Altus	!Cantus
*clefF4	*clefG2	*clefG2
*k[b-]	*k[b-]	*k[b-]
*G:dor	*G:dor	*G:dor
*M4/2	*M4/2	*M4/2
=110	=110	=110
0r	0r	1g
.	.	2b-
.	.	2b-
=111	=111	=111
0r	0r	1cc
.	.	1dd
=112	=112	=112
0r	1d	2r
.	.	2.dd
.	2f	.
.	.	4cc
.	2f	2a
=113	=113	=113
0r	1g	1b-
.	1a	4a
.	.	4b-
.	.	4cc
.	.	4a
=114	=114	=114
1G	2r	4b-
.	.	4a
.	2.g	4b-
.	.	4cc
2B-	.	1dd
.	4f	.
2B-	2d	.
=115	=115	=115
1c	1e	2g
.	.	1gg
1d	2d	.
.	2a	2ff
=116	=116	=116
2r	4b-	2dd
.	4a	.
2.c	4g	2.ee-
.	4f	.
.	2.g	.
4B-	.	4dd
2G	.	[2dd
.	4f	.
=117	=117	=117
1A	2e	2dd]
.	2.f	2cc
2F	.	2a
.	4e-	.
[2G	4d	[2b-
.	4c	.
=118	=118	=118
4G]	4B-	4b-]
4F	4c	4a
2D	1d	4a
.	.	8g
.	.	8f
1E-	.	1g
.	2c	.
=119	=119	=119
2D	1d	0f#
2d	.	.
1d	2r	.
.	2a	.
=120	=120	=120
2c	2a	0r
2B-	1g	.
1A	.	.
.	2f	.
=121	=121	=121
1G	2.b-	1dd
.	4a	.
1B-	2f	1dd
.	2g	.
=122	=122	=122
2F	2a	2cc
2G	1g	2b-
2.d	.	1a
.	2f#	.
4c	.	.
=123	=123	=123
4B-	1g	2.b-
4A	.	.
1G	.	.
.	.	4g
.	2r	2g
2F#	2d	2a
=124	=124	=124
2G	2d	2b-
2C	2e	2cc
1r	2f	2.dd
.	2g	.
.	.	4ee
=125	=125	=125
1r	2.a	2ff
.	.	4ee-
.	4b	4dd
2r	2cc	2ee-
2G	4b-	[2dd
.	4a	.
=126	=126	=126
2G	2b-	2dd]
2A	2.a	2cc
2B-	.	2dd
.	4g	.
2c	[2g	4cc
.	.	4b-
=127	=127	=127
1d	2g]	1a
.	4f	.
.	4e	.
2d	2.f	2.dd
2D	.	.
.	4g	4ee
=128	=128	=128
2D	4a	2ff
.	4b-	.
2E	2g	2.ee
2F	2a	.
.	.	4dd
2G	4g	[2dd
.	4f	.
=129	=129	=129
1A	1e	2dd]
.	.	2cc#
2.B-	[1d	1dd
4A	.	.
=130	=130	=130
2G	1d]	2r
2F	.	2dd
2G	2r	2b-
2A	2a	2cc
=131	=131	=131
1B-	2f	1.dd
.	2g	.
1A	2.a	.
.	.	2cc
.	4g	.
=132	=132	=132
1r	2f	2a
.	2e	2cc
2r	2d	2b-
2d	[2f	2a
=133	=133	=133
2B-	2f]	1g
2c	2e	.
2.d	1f	[1f
4c	.	.
=134	=134	=134
2B-	2r	1f]
2A	2a	.
1G	2b-	2r
.	2b-	2dd
=135	=135	=135
1F	2a	2ff
.	2f	2ff
1r	2g	2ee
.	2a	2cc
=136	=136	=136
0r	2b-	2dd
.	4a	2ee
.	4g	.
.	2f	2ff
.	2g	4ee
.	.	4dd
=137	=137	=137
1A	1a	4cc
.	.	4dd
.	.	4ee
.	.	4cc
2B-	1d	4dd
.	.	4ee
2B-	.	[2ff
=138	=138	=138
2A	1f	4ff]
.	.	4ee
2F	.	1dd
2G	1e	.
2A	.	2cc#
=139	=139	=139
2.B-	1d	1dd
4A	.	.
[1G	2r	2r
.	2b-	2dd
=140	=140	=140
1G]	2.b-	2.dd
.	4b-	4dd
1r	2a	2cc
.	[2g	[2b-
=141	=141	=141
0r	2g]	2b-]
.	2f	2a
.	1b-	1g
=142	=142	=142
2r	1a	2.f
2d	.	.
.	.	4g
2.d	2r	1a
.	2f	.
4d	.	.
=143	=143	=143
2c	2e	1r
1B-	2d	.
.	1f	2r
2A	.	2ff
=144	=144	=144
1G	1g	2ee
.	.	2dd
2F	2a	2.ff
2B-	2d	.
.	.	8ee
.	.	8dd
=145	=145	=145
2A	4e	4cc
.	4f	4dd
2G	2.g	2.ee
1B-	.	.
.	4f	4dd
.	4f	[2dd
.	8e	.
.	8d	.
=146	=146	=146
1A	2e	2dd]
.	2e	2cc#
2D	1d	[1dd
[2d	.	.
=147	=147	=147
4d]	1r	1dd]
4c	.	.
1B-	.	.
.	1f	1r
2A	.	.
=148	=148	=148
2G	1g	1b-
2G	.	.
2.F	1a	1cc
4E	.	.
=149	=149	=149
1D	2a	1dd
.	2f	.
1r	2g	2dd
.	2b-	2b-
=150	=150	=150
0r	2a	2cc
.	2.g	2ee-
.	.	2dd
.	4f	.
.	4e	[2cc
.	4d	.
=151	=151	=151
1r	2c	4cc]
.	.	4b-
.	2.cc	4a
.	.	4g
1F	.	2f
.	4b-	.
.	2a	2ff
=152	=152	=152
1G	2g	2ee
.	2f	1dd
1A	1e	.
.	.	4cc
.	.	4b
=153	=153	=153
2A	1a	2.cc
2F	.	.
.	.	4a
2G	4g	4b-
.	4f	4cc
2B-	4e	[2dd
.	4d	.
=154	=154	=154
1A	1e	2dd]
.	.	2cc
2D	[1d	2b-
2F	.	2a
=155	=155	=155
2G	1d]	2.b-
1B-	.	.
.	.	4a
.	2r	2g
2A	2f	[2f
=156	=156	=156
1G	1g	2f]
.	.	2e
2.F	1a	1f
4G	.	.
=157	=157	=157
2A	2a	1r
2B-	2f	.
1G	2g	1b-
.	2b-	.
=158	=158	=158
1F	1a	1cc
1r	2d	1dd
.	2f	.
=159	=159	=159
0r	2g	2dd
.	2b-	2b-
.	2a	2cc
.	[2g	2ee-
=160	=160	=160
1B-	4g]	1dd
.	4f	.
.	2f	.
1c	2e	2.g
.	[2g	.
.	.	4a
=161	=161	=161
1d	2g]	2b-
.	4f	4a
.	4e	4g
2d	2f	2a
2B-	2b-	2dd
=162	=162	=162
2c	4a	2.cc
.	4g	.
2c	1g	.
.	.	4b-
1d	.	1a
.	2f#	.
=163	=163	=163
0G	0g	0g
*-	*-	*-
!!!CDT: 1525/^1526/-1594/2/2
!!!OCY: Italia
!!!AGN: Mass (Parody)
!!!AST: renaissance, vocal
!!!ASW: Madrigal 1542 (Ferabosco)
!!!PWK: Masses, Book 3
!!!RNB: Cadence finals: A
!!!YOR: Le Opere Complete, v. 6, p. 30
!!!YOO: Rome, Italy: Fratelli Scalera
!!!END: 1992//
!!!EED: John Miller
!!!YEC: Copyright 2000, John Miller
!!!YEN: United States of America
!!!YEM: Rights to all derivative electronic formats reserved.
!!!YEM: Refer to licensing agreement for further details.
!!!YEM: This file must be accompanied by the licensing agreement.
!!!YEM: A copy of the licensing agreement may be found at http://www.music-cog.ohio-state.edu/HumdrumDatabases/Palestrina/license.txt
!!!EMD: converted to Humdrum by Bret Aarden
